X:0690
T:Miss Callander's Minuet.
M:3/4
L:1/8
Q:3/4=50
I: (1) :: (2) :: (1) :| (2) ||
Z:Jack Campin * www.campin.me.uk * 2009
K:G
d2 d2c2|B3c   d2|EA       c2 B>c|   BA`GF```````ED       |
d2 d2c2|B3c   d2|Ec```````BA`GF |[1 G2 G/D/E/F/ G/A/B/c/:|\
                                 [2 F4          G2      ||
A2 AAAA|B2 G3  G|c2       cA FD |   c2 cA       FD       |
E2 EGFA|G2 GB dg|f/e/d/c/ B2TA2 |[1 G2 B2       G2      :|\
                                 [2 c4          B2      |]

